X: 1
T: Ol\'ahos
O: Hungary
B: Geisler
Z: 1998 by John Chambers <jc@trillian.mit.edu> http://trillian.mit.edu/~jc/music/
M: 2/4
L: 1/8
K: Edor
|: "Em"MB,E/F/ G/F/E | MB,E/F/ G/F/E | BB ^AG | "B7"F2 F2 :|
|: "G"B>c dd | ed cB | cB ^AG | "B7"F2 F2 \
|  "G"B>c dd | ed cB | "B7"cB GF | "Em"E2 E2 :|
